X:1
T:San Marino,10.10.77.10
T:San Marino,10.10.77.10
T:John Jackson Hood, 1891
T:Public Domain Courtesy of the Cyber Hymnal™
C:John Jackson Hood, 1891
Z:Public Domain
Z:Courtesy of the Cyber Hymnal™
%%score ( 1 2 ) ( 3 4 )
L:1/8
Q:1/4=93
M:4/4
K:F
V:1 treble 
V:2 treble 
V:3 bass 
V:4 bass 
V:1
 [CF][CG] | [FA]>[FA] [FA][EG] [FA]2 [FA]>[FB] | [Fc]6 [GB][FA] | [EG]>[EG] [EG][DF] | %4
 [EG]2 [Ec]>[GB] | [FA]6 [FA][GB] | [Ac]>[Ac] [Bd][Ac] ([GB][FA])[EG][FA] | %7
 [EB]>[EB] [Ec][EB] (AG)[DF][EG] | [FA]>[FA] [EB][Fc] (d B3) | [FA]3 [EG] !fermata![CF]2 |] %10
V:2
 x2 | x8 | x8 | x4 | x4 | x8 | x8 | x4 E2 x2 | x4 F4 | x6 |] %10
V:3
 [F,A,][F,B,] | [F,C]>[F,C] [F,C][C,C] [F,C]2 [F,C]>[G,C] | [A,C]6 [E,C][F,C] | %3
 [C,C]>[C,C] [C,C][C,C] | [C,C]2 [C,G,]>[C,C] | [F,C]6 [F,C][F,C] | %6
 [F,C]>[F,C] [F,C][F,C] [F,C]2 [B,C][A,C] | [G,C]>[G,C] [C,C][C,C] (CB,)[D,A,][C,C] | %8
 [F,C]>[F,C] [G,C][A,C] (B, D3) | C3 [C,B,] !fermata![F,A,]2 |] %10
V:4
 x2 | x8 | x8 | x4 | x4 | x8 | x8 | x4 C,2 x2 | x4 B,4 | C3 x3 |] %10

